icons/flyio-filled.svg

<svg width="256" height="256" viewBox="0 0 256 256" fill="none" xmlns="http://www.w3.org/2000/svg">
<path d="M196 0H60C26.8629 0 0 26.8629 0 60V196C0 229.137 26.8629 256 60 256H196C229.137 256 256 229.137 256 196V60C256 26.8629 229.137 0 196 0Z" fill="url(#gradient)"/>
<path fill-rule="evenodd" clip-rule="evenodd" d="M115.875 251.911L113.97 253.51C112.21 254.963 110.004 255.768 107.721 255.789H54.866C44.3383 255.802 34.1337 252.154 26 245.47C29.9439 245.904 36.0257 247.285 45.2201 239.807L90.8992 199.62C91.7996 198.894 92.9219 198.497 94.0791 198.497C95.2363 198.497 96.3586 198.894 97.259 199.62L130.141 226.657L141.814 217.058C143.665 215.563 146.329 215.563 148.177 217.058L184.114 246.606C188.45 249.886 194.062 253.764 207 255.789H183.095C180.982 255.764 178.93 255.08 177.225 253.833L176.806 253.51L175.033 252.036C174.89 251.864 174.732 251.705 174.561 251.561C172.552 249.877 147.091 228.785 147.091 228.785C146.553 228.338 145.875 228.094 145.175 228.095C144.475 228.096 143.798 228.342 143.261 228.791C143.261 228.791 143.324 228.869 116.237 251.561C116.108 251.668 115.987 251.785 115.875 251.911ZM194.4 189.239C191.554 189.291 188.839 190.445 186.826 192.457C184.813 194.47 183.659 197.184 183.606 200.03C183.66 202.876 184.815 205.589 186.828 207.601C188.84 209.614 191.554 210.768 194.4 210.821C197.245 210.768 199.959 209.614 201.972 207.601C203.985 205.589 205.14 202.876 205.194 200.03C205.141 197.184 203.987 194.47 201.974 192.457C199.961 190.445 197.246 189.291 194.4 189.239ZM124.627 156.54L120.991 152.928L118.79 150.649L113.235 144.672L111.85 143.156L105.114 135.28L103.206 132.915L97.3038 125.234L96.649 124.349L92.1131 117.669L90.8692 115.657L87.6191 110.077L86.6264 108.253L83.8157 102.318L83.2835 100.955L81.6718 96.4098L81.0499 94.2629L80.5715 92.2805L80.1678 90.1277L79.8509 87.7356L79.7223 86.2077L79.6685 83.6004L79.6805 83.0532L79.7552 81.4924L80.3173 75.8083L80.4938 74.8126L81.7735 69.1345L82.0665 68.1836L83.0174 65.4119L83.3224 64.6942L84.8353 61.3693L85.8848 59.3899L87.347 56.9799L88.8031 54.833L89.8407 53.4696L91.0367 52.0284L92.3523 50.5812L93.4796 49.4509L96.2244 47.035L98.2308 45.3934C98.2786 45.3516 98.3294 45.3157 98.3803 45.2798L100.754 43.6742L102.641 42.4721L106.223 40.5854C106.277 40.5525 106.34 40.5256 106.397 40.4987L111.474 38.3907L111.943 38.2143L116.458 36.8927L118.366 36.4651L120.943 35.9478L122.654 35.6877L125.276 35.3618L127.064 35.2033L130.613 35.015L132.003 35L134.638 35.0538L135.322 35.0927L139.138 35.4096L144.182 36.1213L144.765 36.2439L149.752 37.4847L151.218 37.9213L152.844 38.4834L154.827 39.2339L156.393 39.8977L158.696 40.9831L160.146 41.7276L162.753 43.2585L163.725 43.8565L167.28 46.4519L168.3 47.337L170.775 49.5915L170.898 49.7141L173 51.9686L173.724 52.7848L176.19 56.062L176.693 56.8453L178.651 60.1523L179.24 61.2856L180.344 63.7524L181.498 66.6318L181.907 67.8368L183.097 72.1724C183.119 72.2493 183.137 72.3271 183.151 72.4056L184.078 78.2691L184.264 80.2993L184.413 82.9186L184.428 83.4628L184.371 86.3871L184.323 87.1615L184.165 88.4263L183.349 93.0968L183.151 93.9519L181.271 99.8184C181.253 99.8751 181.233 99.931 181.211 99.9859L179.465 104.214L179.399 104.354L177.117 108.908L173.129 115.854L171.012 119.092L168.473 122.893L166.682 125.348L163.133 130.093L160.717 133.131L157.147 137.475L154.644 140.402L150.796 144.732L148.32 147.45L141.162 154.925L139.5 156.57L140.48 157.407C141.871 158.687 143.177 160.053 144.391 161.503C144.756 161.946 145.109 162.397 145.45 162.858C146.194 163.862 146.864 164.924 147.453 166.027C147.77 166.625 148.054 167.244 148.305 167.875C148.876 169.322 149.262 170.853 149.406 172.399L149.471 173.574C149.507 175.823 149.098 178.059 148.26 180.146C147.19 182.826 145.425 185.173 143.147 186.946C142.352 187.568 141.503 188.115 140.612 188.587C138.547 189.663 136.294 190.332 133.977 190.558H133.962C131.244 190.83 128.5 190.518 125.913 189.643C124.722 189.229 123.579 188.689 122.504 188.031C121.243 187.26 120.092 186.322 119.08 185.244C117.691 183.764 116.589 182.037 115.833 180.152C115.089 178.292 114.681 176.315 114.628 174.313L114.649 172.892C114.757 171.248 115.113 169.629 115.705 168.09C115.935 167.486 116.195 166.897 116.485 166.323C117.053 165.217 117.705 164.155 118.432 163.145C118.907 162.484 119.412 161.841 119.939 161.219C121.036 159.933 122.208 158.711 123.443 157.559L123.897 157.15L124.627 156.54Z" fill="black"/>
<path fill-rule="evenodd" clip-rule="evenodd" d="M113.476 254.182L143.313 229.002C143.86 228.545 144.55 228.293 145.263 228.292C145.976 228.291 146.667 228.54 147.215 228.996L177.485 254.182C179.325 255.681 181.627 256.5 184 256.503H107C109.364 256.503 111.651 255.684 113.476 254.182ZM132.049 164.295L132.342 164.381C132.436 164.426 132.515 164.49 132.601 164.548L132.844 164.764C133.447 165.319 134.032 165.901 134.596 166.498C134.992 166.921 135.379 167.356 135.75 167.807C136.222 168.377 136.664 168.974 137.066 169.595C137.24 169.869 137.401 170.146 137.553 170.436C137.684 170.686 137.803 170.945 137.907 171.206C138.089 171.663 138.226 172.145 138.269 172.635L138.26 173.555C138.199 174.385 137.941 175.189 137.508 175.9C137.076 176.611 136.48 177.209 135.771 177.645C134.851 178.202 133.815 178.543 132.744 178.641L131.608 178.675L130.648 178.59C130.2 178.524 129.758 178.417 129.329 178.27C128.893 178.121 128.474 177.925 128.081 177.685L127.331 177.137C126.448 176.383 125.847 175.352 125.626 174.213C125.588 174.021 125.559 173.828 125.537 173.634L125.51 172.757C125.525 172.519 125.562 172.285 125.613 172.05C125.744 171.538 125.933 171.042 126.171 170.57C126.478 169.979 126.829 169.409 127.219 168.867C127.867 167.99 128.571 167.155 129.323 166.367C129.808 165.855 130.304 165.358 130.822 164.88L131.19 164.548C131.446 164.381 131.449 164.381 131.742 164.295H132.049ZM130.164 42.0091L130.283 42V144.54L130.027 144.068C126.651 137.824 123.509 131.456 120.606 124.979C118.251 119.736 116.118 114.396 114.213 108.973C112.692 104.653 111.405 100.255 110.36 95.7964C109.552 92.2541 108.931 88.6599 108.675 85.0292C108.576 83.48 108.546 81.927 108.587 80.3751C108.611 79.0227 108.666 77.6734 108.751 76.3241C108.885 74.2041 109.102 72.0873 109.412 69.9856C109.659 68.3317 109.964 66.6839 110.338 65.0543C110.637 63.7598 110.984 62.4744 111.38 61.2104C111.953 59.3829 112.638 57.598 113.436 55.8557C113.728 55.2283 114.042 54.6039 114.371 53.9917C116.351 50.3244 119.037 46.9465 122.555 44.6895C124.841 43.2015 127.45 42.2824 130.164 42.0091ZM143.459 42.268L150.358 44.2357C153.553 45.4144 156.63 46.9496 159.456 48.8685C163.309 51.4689 166.63 54.7812 169.24 58.6275C170.769 60.9058 172.036 63.3638 173.026 65.9315C174.46 69.7297 175.35 73.7107 175.663 77.7556C175.755 78.8156 175.807 79.8786 175.828 80.9416C175.852 81.9285 175.846 82.9184 175.767 83.9053C175.572 86.1136 175.158 88.2975 174.527 90.4235C174.021 92.1633 173.425 93.8754 172.739 95.5528C171.887 97.6392 170.939 99.686 169.901 101.684C167.604 106.122 164.957 110.371 162.124 114.48C158.613 119.53 154.87 124.415 150.906 129.118C146.603 134.25 142.116 139.224 137.453 144.031C140.617 138.097 143.57 132.054 146.307 125.911C147.83 122.488 149.265 119.027 150.614 115.534C152.097 111.696 153.438 107.806 154.625 103.868C155.509 100.917 156.289 97.9346 156.931 94.9192C157.483 92.3333 157.915 89.7199 158.183 87.0913C158.408 84.8983 158.491 82.693 158.436 80.4939C158.415 79.1477 158.365 77.8021 158.287 76.4581C157.964 71.0517 157.141 65.6604 155.564 60.4733C154.966 58.5066 154.24 56.5815 153.389 54.7105C151.369 50.3122 148.552 46.2033 144.739 43.2031L143.459 42.268Z" fill="white"/>
<radialGradient id="gradient" cx="0" cy="0" r="1" gradientUnits="userSpaceOnUse" gradientTransform="translate(135.924 126.885) scale(185.449 238.97)">
<stop stop-color="#BA7BF0"/>
<stop offset="0.5" stop-color="#996BEC"/>
<stop offset="1" stop-color="#5046E4"/>
</radialGradient>
</svg>

<svg xmlns="http://www.w3.org/2000/svg" width="256" height="256" fill="none"><path fill="url(#gradient)" d="M196 0H60C26.863 0 0 26.863 0 60v136c0 33.137 26.863 60 60 60h136c33.137 0 60-26.863 60-60V60c0-33.137-26.863-60-60-60"/><path fill="#000" fill-rule="evenodd" d="m115.875 251.911-1.905 1.599a9.96 9.96 0 0 1-6.249 2.279H54.866A45.38 45.38 0 0 1 26 245.47c3.944.434 10.026 1.815 19.22-5.663L90.9 199.62a5.07 5.07 0 0 1 6.359 0l32.882 27.037 11.673-9.599a5.074 5.074 0 0 1 6.363 0l35.937 29.548c4.336 3.28 9.948 7.158 22.886 9.183h-23.905a10.15 10.15 0 0 1-5.87-1.956l-.419-.323-1.773-1.474a4 4 0 0 0-.472-.475c-2.009-1.684-27.47-22.776-27.47-22.776a2.99 2.99 0 0 0-3.83.006s.063.078-27.024 22.77q-.194.16-.362.35m78.525-62.672a11 11 0 0 0-10.794 10.791 11 11 0 0 0 3.222 7.571 11 11 0 0 0 7.572 3.22 11 11 0 0 0 7.572-3.22 11 11 0 0 0 3.222-7.571 11 11 0 0 0-10.794-10.791m-69.773-32.699-3.636-3.612-2.201-2.279-5.555-5.977-1.385-1.516-6.736-7.876-1.908-2.365-5.902-7.681-.655-.885-4.536-6.68-1.244-2.012-3.25-5.58-.993-1.824-2.81-5.935-.532-1.363-1.612-4.545-.622-2.147-.478-1.983-.404-2.152-.317-2.392-.129-1.528-.053-2.608.011-.547.075-1.56.562-5.685.177-.995 1.28-5.678.293-.951.95-2.772.305-.718 1.513-3.325 1.05-1.98 1.462-2.41 1.456-2.146 1.038-1.363 1.196-1.442 1.315-1.447 1.128-1.13 2.744-2.416 2.007-1.642q.072-.06.15-.113l2.373-1.606 1.887-1.202 3.582-1.887c.054-.032.117-.06.174-.086l5.077-2.108.469-.177 4.515-1.321 1.908-.428 2.577-.517 1.711-.26 2.622-.326 1.788-.159 3.549-.188 1.39-.015 2.635.054.684.039 3.816.317 5.044.711.583.123 4.987 1.24 1.466.437 1.626.562 1.983.75 1.566.665 2.303 1.085 1.45.745 2.607 1.53.972.598 3.555 2.596 1.02.885 2.475 2.255.123.122L173 51.97l.724.816 2.466 3.277.503.783 1.958 3.307.589 1.134 1.104 2.466 1.154 2.88.409 1.205 1.19 4.335q.033.116.054.234l.927 5.863.186 2.03.149 2.62.015.544-.057 2.924-.048.775-.158 1.264-.816 4.67-.198.856-1.88 5.866a2 2 0 0 1-.06.168l-1.746 4.228-.066.14-2.282 4.554-3.988 6.946-2.117 3.238-2.539 3.801-1.791 2.455-3.549 4.745-2.416 3.038-3.57 4.344-2.503 2.927-3.848 4.33-2.476 2.718-7.158 7.475-1.662 1.645.98.837a44 44 0 0 1 3.911 4.096q.548.664 1.059 1.355a25.5 25.5 0 0 1 2.003 3.169c.317.598.601 1.217.852 1.848a16.6 16.6 0 0 1 1.101 4.524l.065 1.175a16.9 16.9 0 0 1-1.211 6.572 16.26 16.26 0 0 1-5.113 6.8 17 17 0 0 1-2.535 1.641 18.2 18.2 0 0 1-6.635 1.971h-.015a19.2 19.2 0 0 1-8.049-.915 17.6 17.6 0 0 1-3.409-1.612 16.5 16.5 0 0 1-3.424-2.787 16.3 16.3 0 0 1-3.247-5.092 16.9 16.9 0 0 1-1.205-5.839l.021-1.421a16.4 16.4 0 0 1 1.056-4.802q.345-.906.78-1.767a25 25 0 0 1 1.947-3.178q.714-.992 1.507-1.926a45 45 0 0 1 3.504-3.66l.454-.409z" clip-rule="evenodd"/><path fill="#fff" fill-rule="evenodd" d="m113.476 254.182 29.837-25.18a3.05 3.05 0 0 1 3.902-.006l30.27 25.186a10.34 10.34 0 0 0 6.515 2.321h-77c2.364 0 4.651-.819 6.476-2.321m18.573-89.887.293.086c.094.045.173.109.259.167l.243.216a35 35 0 0 1 1.752 1.734q.596.633 1.154 1.309c.472.57.914 1.167 1.316 1.788.174.274.335.551.487.841q.197.377.354.77c.182.457.319.939.362 1.429l-.009.92a5.25 5.25 0 0 1-2.489 4.09 7.1 7.1 0 0 1-3.027.996l-1.136.034-.96-.085a7.4 7.4 0 0 1-1.319-.32 6.3 6.3 0 0 1-1.248-.585l-.75-.548a5.13 5.13 0 0 1-1.705-2.924 7 7 0 0 1-.089-.579l-.027-.877q.025-.356.103-.707c.131-.512.32-1.008.558-1.48q.462-.888 1.048-1.703a26 26 0 0 1 2.104-2.5c.485-.512.981-1.009 1.499-1.487l.368-.332c.256-.167.259-.167.552-.253zm-1.885-122.286.119-.009v102.54l-.256-.472a287 287 0 0 1-9.421-19.089 204 204 0 0 1-6.393-16.006 127 127 0 0 1-3.853-13.177c-.808-3.542-1.429-7.136-1.685-10.767a52 52 0 0 1-.088-4.654q.036-2.028.164-4.05a77 77 0 0 1 .661-6.34c.247-1.653.552-3.301.926-4.93.299-1.295.646-2.58 1.042-3.845a46 46 0 0 1 2.056-5.354c.292-.628.606-1.252.935-1.864 1.98-3.668 4.666-7.045 8.184-9.302a17.1 17.1 0 0 1 7.609-2.68m13.295.259 6.899 1.968c3.195 1.178 6.272 2.714 9.098 4.633a36.5 36.5 0 0 1 9.784 9.758 37 37 0 0 1 3.786 7.304 42.8 42.8 0 0 1 2.637 11.825c.092 1.06.144 2.123.165 3.186a29 29 0 0 1-.061 2.963 33 33 0 0 1-1.24 6.519 52 52 0 0 1-1.788 5.129 74 74 0 0 1-2.838 6.131c-2.297 4.438-4.944 8.687-7.777 12.796a199 199 0 0 1-11.218 14.638 277 277 0 0 1-13.453 14.913 285 285 0 0 0 8.854-18.12 224 224 0 0 0 4.307-10.377 162 162 0 0 0 4.011-11.666 114 114 0 0 0 2.306-8.949c.552-2.586.984-5.2 1.252-7.828a52 52 0 0 0 .253-6.597 95 95 0 0 0-.149-4.036c-.323-5.406-1.146-10.798-2.723-15.985a47 47 0 0 0-2.175-5.762c-2.02-4.399-4.837-8.508-8.65-11.508z" clip-rule="evenodd"/><radialGradient id="gradient" cx="0" cy="0" r="1" gradientTransform="matrix(185.449 0 0 238.97 135.924 126.885)" gradientUnits="userSpaceOnUse"><stop stop-color="#BA7BF0"/><stop offset=".5" stop-color="#996BEC"/><stop offset="1" stop-color="#5046E4"/></radialGradient></svg>
